X:1
T:Nocturne No.5 In B flat Major
T:Nocturne
T:John Field
T:Public Domain
T:Public Domain
T:Public Domain
T:Public Domain
C:John Field
Z:Public Domain
%%score { ( 1 3 ) | ( 2 4 ) }
L:1/8
Q:1/4=85
M:12/8
K:Bb
V:1 treble nm="Piano"
V:3 treble 
V:2 bass 
V:4 bass 
V:1
"^Cantabile, assai lento"!p!!<(! (!3!f6 =e3!<)! g3 |!>(! f3- f2 d!>)! f3) z2 z | (!2!d6 _e3 c3 | %3
 !2!B3- B2 d/c/ B3) z2 z | (!3!d6 =e3 A3) | (!4!f6 =e3 d3) | (c6 d3 =e3 | %7
 f3)!pp! z!>(! (f'a)!>)! z!>(! (!4!bd)!>)! z!>(! (!4!_eA)!>)! | %8
!p!{/!2!B} (!5![Bf]6!<(! !1!!3![B=e]3 [Bg]3!<)! |!>(! f3- f2 d!>)! f3) z2 z | (!2!d6 _e3 c3 | %11
 !2!B3- B2 d/c/ B3) z2 z | (!3!e6 d3- d2 e | !>!d3 c6) (!2!cd/c/=B/c/ | %14
 !5!f3 !3!e2 !1!c!<(! !2!_B3 !1!c3!<)! |!>(! !3!_d6- d3)!>)! (!2!c3 | %16
 !5!f3 !3!e2 !1!c !2!Bc/B/A/B/ !>!=d2 c | %17
 B)!pp! (.!2!=E!<(!.!3!F .!3!^F.!4!G.!3!^G .!4!A.!3!B.!4!=B .!5!c.!4!^c.!5!d!<)! | %18
!>(! .!5!_e.!5!d.!4!=c .!3!=B.c.d .e.d.c .B.c!>)!.=f | %19
 _B)!<(! (.=E.F .^F.G.^G .A.B.=B .c.^c.d)!<)! |!>(! (._e.d.=c .=B.c.d .e.d.c .B.c!>)!.=f | %21
 [D_B]) z z !arpeggio![Fd] z z !arpeggio![DB]3!p! (!1!FB!4!d) | (!5-3!f6!<(! =e3 g3!<)! | %23
!>(! f3- f2 d)!>)! (!3!f-!1!f/!>!c'ba/g/!1!f/!3!=e/_e/) | (d6 !3!_e3 !1!c3 | %25
 !2!B3- BA/B/d/c/ B3) z2 z | (!3!d6 =e3 A3) | ((!4-2!f6 (8:6:8(!1!=e)f!5!bagfe!2!d)) | %28
 (!1!c6 d3 =e3 | f3)!pp! z!>(! (fA)!>)! z!>(! (fB)!>)! z!>(! (f_A)!>)! | %30
!mf!{/G} ([Gf-]3 f!3!f/=e/g/f/ _e3 d3 |!<(! !2!c3 !3!d3 e3 f3!<)! |!>(! !3!d6 c3 G3!>)! | %33
 !3!B6 A3) z (!4!f=e | _e6 !1!d3 !2!_d3 | %35
 c) (!2!^f/g/b/a/ g)!pp! (^f'/g'/b'/a'/ g') z z!<(! (!2!cd/c/=B/c/!<)! | %36
 =f3- f!3!e!1!c !2!_B3!>(! d2 c!>)! | B)!pp!!>(! (.=E!>)!.F!<(! .^F.G.^G .A.B.=B .c.^c.d!<)! | %38
!>(! _ed=c =Bcd!>)! edc Bc=f | _B)!<(! (=EF ^FG^G AB=B c^cd!<)! | _e!>(!d=c =Bcd edc Bc=f!>)! | %41
 [D_B])!p! (!1!de f!1!!4![=eg]!2!!5![_ea] !1!!4![d_b]) z z (!2!!5![Fd]!1!!5![=Ec]!2!!3![_EF] | %42
 !1!!5![DB]) z z[K:bass] (!3!F,!>![=B,,F,G,]!>![C,_E,F,A,] !arpeggio![_B,,D,F,_B,]3- [B,,D,F,B,]) z z |] %43
V:2
!ped! (!5!B,,!2!D!3!B,FDB,)!ped-up!!ped! (G,^CB,=ECB,)!ped-up! | %1
!ped! (B,,!2!D!3!B,FDB, F,DB,FDB,)!ped-up! | %2
!ped! (B,,DB,FDB,)!ped-up!!ped! (!5!_G,CA,ECA,)!ped-up! |!ped! (B,,DB,FDB,) (F,DB,FDB,)!ped-up! | %4
"^cresc."!ped! (B,,DB,FDB,)!ped-up!!ped! (A,,!2!^C!4!A,GCA,)!ped-up! | %5
!ped! (D,!2!D!4!A,FDA,)!ped-up!!ped! (=B,,D_A,FDA,)!ped-up! | %6
"^dim."!ped! (C,_B,G,=EB,G,) (C,B,G,EB,G,)!ped-up! | %7
 (F,F!3!A,)!ped! (!5!_E,!1!F!2!C)!ped-up!!ped! (D,FB,)!ped-up!!ped! (C,_E!3!F,)!ped-up! | %8
!ped! (B,,!2!DB,FDB,)!ped-up!!ped! (G,^CB,=ECB,)!ped-up! |!ped! (B,,DB,FDB, F,DB,FDB,)!ped-up! | %10
!ped! (B,,DB,FDB,)!ped-up!!ped! (_G,CA,ECA,)!ped-up! |!ped! (B,,DB,FDB, F,DB,FDB,)!ped-up! | %12
!ped! (G,EB,GEB,)!ped-up!!ped! (F,DB,FDB,)!ped-up! | %13
!ped! (=E,!2!C!3!B, !1!G!2!CB, E,G!3!B,!ped-up!!ped! _E,F!3!A,)!ped-up! | %14
!ped! (D,F!2!B, !5!E,!ped-up!CG, F,DB, F,_EA,) | %15
!ped! (=E,_DB,GDB, E,G!2!B,)!ped-up!"^dim."!ped! (_E,_G!3!A,)!ped-up! | %16
!ped! (=D,FB, E,!ped-up!CG, F,=DB, F,EA, | %17
!ped! [B,D]) (.[B,,F,B,].[B,,F,B,] .[B,,F,B,].[B,,F,B,].[B,,F,B,] .[B,,F,B,].[B,,F,B,].[B,,F,B,] .[B,,F,B,].[B,,F,B,].[B,,F,B,])!ped-up! | %18
!ped! (.[B,,F,].[B,,F,].[B,,F,] .[B,,F,].[B,,F,].[B,,F,] .[B,,F,].[B,,F,].[B,,F,] .[B,,F,].[B,,F,].[B,,F,]!ped-up! | %19
!ped! .[B,,F,])(.[B,,F,B,].[B,,F,B,] .[B,,F,B,].[B,,F,B,].[B,,F,B,] .[B,,F,B,].[B,,F,B,].[B,,F,B,] .[B,,F,B,].[B,,F,B,].[B,,F,B,])!ped-up! | %20
!ped! (.[B,,F,].[B,,F,].[B,,F,] .[B,,F,].[B,,F,].[B,,F,] .[B,,F,].[B,,F,].[B,,F,] .[B,,F,].[B,,F,].[B,,F,]!ped-up! | %21
!ped! [B,,F,]) z z !arpeggio![B,,F,B,] z z !arpeggio![B,,F,B,]3 z2!ped-up! z | %22
!ped! (B,,DB,FDB,)!ped-up!!ped! (G,^CB,=ECB,)!ped-up! |!ped! (B,,DB,FDB, F,DB,FDB,)!ped-up! | %24
!ped! (B,,DB,FDB,)!ped-up!!ped! (_G,CB,ECB,)!ped-up! |!ped! (B,,DB,FDB, F,DB,FDB,)!ped-up! | %26
"^cresc."!ped! (B,,DB,FDB,)!ped-up!!ped! (A,,^CA,GCA,)!ped-up! | %27
!ped! (D,DA,FDA,)!ped-up!!ped! (B,,DG,FDG,)!ped-up! | %28
"^dim."!ped! (C,CA, FC!3!A,) (_A,F!ped-up!=B, !4!G,C_B,) | %29
 (F,F!3!=A,)!ped! (_E,F!2!C)!ped-up!!ped! (D,F!2!B,)!ped-up!!ped! (C,E!3!F,)!ped-up! | %30
!ped! (=B,,DG,FDG,)!ped-up!!ped! (C,_E!3!G, F,!ped-up!D_A,) | %31
 (!5!G,GE) (G,F!4!=B,) (CGE) ([=A,C]FE) |!ped! (_B,,D_B, F,DB,) (E,!ped-up!CB, =E,CB,) | %33
 (F,DB, FDB,) (F,CA, F) z z |!ped! (!5!G,!2!E!4!B, [_G,_G]EB,)!ped-up!!ped! (F,DB, F_DB,)!ped-up! | %35
!ped! (=E,CB, =GCB, E,CB,)!ped-up!!ped! (_E,=FA,)!ped-up! | %36
!ped! (D,=B,_A,) (!5!E,!ped-up!CG,) (!5!F,D_B,) (F,_E=A,) | %37
 [B,D]!ped! [_B,,F,B,][B,,F,B,] [B,,F,B,][B,,F,B,][B,,F,B,] [B,,F,B,][B,,F,B,][B,,F,B,] [B,,F,B,][B,,F,B,][B,,F,B,]!ped-up! | %38
!ped! [B,,F,][B,,F,][B,,F,] [B,,F,][B,,F,][B,,F,] [B,,F,][B,,F,][B,,F,] [B,,F,][B,,F,][B,,F,]!ped-up! | %39
 [B,,F,]!ped! [B,,F,B,][B,,F,B,] [B,,F,B,][B,,F,B,][B,,F,B,] [B,,F,B,][B,,F,B,][B,,F,B,] [B,,F,B,][B,,F,B,][B,,F,B,]!ped-up! | %40
!ped! [B,,_G,][B,,G,][B,,G,] [B,,G,][B,,G,][B,,G,] [B,,G,][B,,G,][B,,G,] [B,,G,][B,,G,][B,,G,]!ped-up! | %41
 [B,,F,] z z[K:treble] (!1!dcF B)[K:bass] (!3!D,E, F,!1!=G,!1!A, | %42
 [B,,B,])!pp! (D,,E,,"^rit." .F,,.F,,.F,,)!ped! !arpeggio![B,,,F,,]3- [B,,,F,,]!ped-up! z z |] %43
V:3
 x12 | x12 | x12 | x12 | x12 | x12 | x12 | x12 | x12 | B6- B3 x3 | x12 | x12 | x12 | x12 | x12 | %15
 x12 | x12 | x DD DDD DDD DDD | [_EA][EA][EA] [EA][EA][EA] [EA][EA][EA] [EA][EA][EA] | %19
 [DB] DD DDD DDD DDD | [_EA][EA][EA] [EA][EA][EA] [EA][EA][EA] [EA][EA][EA] | x12 | x12 | x12 | %24
 x12 | x12 | x12 | x12 | x12 | x12 | x12 | x12 | x12 | x12 | x12 | x12 | x12 | x DD DDD DDD DDD | %38
 [_EA][EA][EA] [EA][EA][EA] [EA][EA][EA] [EA][EA][EA] | [DB] DD DDD DDD DDD | %40
 !>![_EA][EA][EA] [EA][EA][EA] [EA][EA][EA] [EA][EA][EA] | x12 | x3[K:bass] x9 |] %43
V:4
 x12 | x12 | x12 | x12 | x12 | x12 | x12 | x12 | x12 | x12 | x12 | x12 | x12 | x12 | x12 | x12 | %16
 D,3 E,3 F,3 F,3 | x12 | x12 | x12 | x12 | x12 | x6 G,3 x3 | x12 | x6 _G,3 x3 | x12 | x12 | x12 | %28
 x12 | x12 | x12 | x12 | x12 | x12 | x12 | x12 | x12 | x12 | x12 | x12 | x12 | %41
 x3[K:treble] x4[K:bass] x2 F,,3 | x12 |] %43

